X: 1
T: N\"asvisa efter D\"od Erik Andersson
C: efter Simon Simonsson Kvartett
S: Bruce Sagan's "scanfolk" session archive
F: https://app.box.com/s/u6iiren0igvsukrhdducy7orq72jayq8/file/745579350957 2021-5-29
R: g\aangl\aat, snoa
Z: 2021 John Chambers <jc:trillian.mit.edu>
M: 2/4
L: 1/16
K: D
A2 |: fgfe defg | a2ab a2g2 | f2fa f2ed |1,3 e4 [e4A4] :|2,4[M:3/4] e2c2 d4- d2 :|
[M:2/4]
|: fd | e2cB A2fd | e2cB A4 | BcBA GABG | A4- A2- :|
